icons/fill-new-office-doc-document-copy.svg

<svg xmlns="http://www.w3.org/2000/svg" width="32px" height="32px" viewBox="0 0 32 32" version="1.1">
    <title>fill-new-office-doc-document-copy</title>
    <g id="fill-new-office-doc-document-copy" stroke-width="1" fill-rule="evenodd">
        <path d="M23,8 C23.5522847,8 24,8.44771525 24,9 L24,29 C24,29.5522847 23.5522847,30 23,30 L3,30 C2.44771525,30 2,29.5522847 2,29 L2,9 C2,8.44771525 2.44771525,8 3,8 L23,8 Z M29,2 C29.5522847,2 30,2.44771525 30,3 L30,25 C30,25.5522847 29.5522847,26 29,26 L26,26 L26,7 C26,6.44771525 25.5522847,6 25,6 L10,6 L10,3 C10,2.44771525 10.4477153,2 11,2 L29,2 Z M17,21 L9,21 C8.44771525,21 8,21.4477153 8,22 C8,22.5522847 8.44771525,23 9,23 L17,23 C17.5522847,23 18,22.5522847 18,22 C18,21.4477153 17.5522847,21 17,21 Z M17,15 L9,15 C8.44771525,15 8,15.4477153 8,16 C8,16.5522847 8.44771525,17 9,17 L17,17 C17.5522847,17 18,16.5522847 18,16 C18,15.4477153 17.5522847,15 17,15 Z" id="&#24418;&#29366;" />
    </g>
</svg>

<svg xmlns="http://www.w3.org/2000/svg" viewBox="0 0 32 32"><path fill="currentColor" d="M23 8a1 1 0 0 1 1 1v20a1 1 0 0 1-1 1H3a1 1 0 0 1-1-1V9a1 1 0 0 1 1-1zm6-6a1 1 0 0 1 1 1v22a1 1 0 0 1-1 1h-3V7a1 1 0 0 0-1-1H10V3a1 1 0 0 1 1-1zM17 21H9a1 1 0 0 0 0 2h8a1 1 0 0 0 0-2m0-6H9a1 1 0 0 0 0 2h8a1 1 0 0 0 0-2"/></svg>
